X:9714
T:Llevántate, neña (Arrg.)
R:Xiraldilla
C:Tradicional
S:Música Tradicional Asturiana, (C) Tello & Tito. Asturies, 2001.
S:http://pagina.de/MusTradAst <telloytito@asturies.org>
N:Canción de gran tradición coral.
A:Asturies
G:Arrg.
Z:¿Cancioneru de Baldomero Fernández?
E:2 Voces
M:2/4
L:1/8
Q:1/4=120
W:Llevántate, neña [Eb]
W:[Felpeyu - Felpeyu]
W:               (Capo I)
W:
W:   Re
W:Llevántate, neña,
W:Sol          La
W:Del dulce llorar
W:   Re
W:La lluz de l'alborada
W:Sol    La     Re
W:Yá entama aportar.
W:
W:Llevántate, neña,
W:Del dulce durmir
W:Lalluz de l'alborada
W:Ya entama surdir.
W:
W:   Sol
W:Llevántate, neña,
W:La           Sim
W:Del dulce llorar
W:   Sol           La
W:La lluz de l'alborada
W:              Re
W:Yá entama aportar.
W:
W:Llevántate, neña,
W:Del dulce durmir
W:La lluz de la alborada
W:Ya entama surdir.
W:
W:Sim                   La
W:Poles flores val mio amor
W:                  Sim
W:N'alborada de San Xuan
W:           Sol         La
W:Canten los gallos al albor
W:                         Re
W:Quien tien amor nun dormirá.
W:
W:                   La
W:A coyeles val mio amor
W:                  Re
W:N'alborada de San Xuan
W:              La
W:Mañanina la meyor
W:                  Re
W:N'alborada de San Xuan
W:                   La
W:A coyeles val mio amor
W:                  Re
W:N'alborada de San Xuan
W:              Sim
W:Mañanina la meyor
W:      La          Sol La
W:N'alborada de San Xuan
W:
W:   Re
W:Ya canten los gallos
W:Sol       La
W:Del alborecer,
W:   Re
W:Llevántate, neña,
W:Sol    La     Re
W:Que te quiero ver.
W:
W:Ya canten los gallos,
W:Dexen de cantar,
W:La lluz de l'alborada
W:Ya entama aportar.
W:
W:Sol
W:Llevántate, neña,
W:La           Sim
W:Del dulce llorar
W:   Sol           La
W:La lluz de l'alborada
W:              Re
W:Yá entama aportar.
W:
W:Llevántate, neña,
W:Del dulce durmir
W:La lluz de la alborada
W:Ya entama surdir.
K:F
V:1
C|:"F"F2 FG|"F"A2 A2|"C"GF "Am"ED|"F"C4|"F"F2 FG|"F"A2 A2|"Bb"BA "C"GA|"F"F3C:|"F"F3F|
|:"Bb"B2 Bc|"Dm"d2 d2|"F"cB "Dm"AG|"F"A3c|"Bb"BA GF|"C"G2 G2|"Bb"BA "C"GA|"F"F3F:|
"F"F2 FC|"F"F2 FG|"F"A2 A2|"C"GF ED|"Am"A4|
|:"Dm"FF "Bb"GF|"Dm"ED "C"EE|"C"EE "Dm"FE|"Bb"DC "Dm"DF:|
"C"G2 GG|"F"AG FE|"F"F2 AA|"Bb"BA "C"GF|
"C"G2 "Bb"BB|"F"cB AG|"F"A2 cc|"Dm"dc "Bb"BA|
"F"A2 cc|"Dm"dc "Bb"BA|"F"A2 AA|"Bb"BA "C"GF|
"F"F2 AA|"Bb"BA "C"GF|"F"F2 FF|"C"GF ED|
"Dm"D2 "F"FF|"C"GF ED|"C"E2 EE|"C"EE FG|"C"G3||!
V:2
C|:F2 FC|F2 FG|E2 C2|C2 E2|C3B,|F2 FE|E2 F2 -|F2 C2:|F3F|
|:G3A|F2 F2|E2 C2|F2 E2|D2 C2|E2 E2|G2 E2|D3F:|
F2 FC|F2 FG|A2 A2|GF ED|E4|
|:D2 EF|CD CC|CC D2|G2 F2:|
CC E2|F2 C2|C2 FF|GF ED|
E2 GG|AG FE|F2 A2|B2 G2|
F2 A2|B2 G2|F2 F2|G2 F2|
D2 F2|G2 E2|D2 D2|E2 C2|
D2 D2|E2 G2|C4|C2 DD|E3||!


